SVG_Azure_All/Azure Managed Instance for Apache Cassandra.svg

<?xml version="1.0" encoding="UTF-8" standalone="no"?>
<!-- Generated by Microsoft Visio, SVG Export Azure Managed Instance for Apache Cassandra.svg Page-1 -->

<svg
   xmlns:dc="http://purl.org/dc/elements/1.1/"
   xmlns:cc="http://creativecommons.org/ns#"
   xmlns:rdf="http://www.w3.org/1999/02/22-rdf-syntax-ns#"
   xmlns:svg="http://www.w3.org/2000/svg"
   xmlns="http://www.w3.org/2000/svg"
   xmlns:sodipodi="http://sodipodi.sourceforge.net/DTD/sodipodi-0.dtd"
   xmlns:inkscape="http://www.inkscape.org/namespaces/inkscape"
   width="0.77482313in"
   height="0.78880525in"
   viewBox="0 0 55.787263 56.794119"
   xml:space="preserve"
   class="st7"
   version="1.1"
   id="svg102"
   sodipodi:docname="Azure Managed Instance for Apache Cassandra.svg"
   style="font-size:12px;overflow:visible;color-interpolation-filters:sRGB;fill:none;fill-rule:evenodd;stroke-linecap:square;stroke-miterlimit:3"
   inkscape:version="0.92.5 (2060ec1f9f, 2020-04-08)"><metadata
   id="metadata106"><rdf:RDF><cc:Work
       rdf:about=""><dc:format>image/svg+xml</dc:format><dc:type
         rdf:resource="http://purl.org/dc/dcmitype/StillImage" /></cc:Work></rdf:RDF></metadata><sodipodi:namedview
   pagecolor="#ffffff"
   bordercolor="#666666"
   borderopacity="1"
   objecttolerance="10"
   gridtolerance="10"
   guidetolerance="10"
   inkscape:pageopacity="0"
   inkscape:pageshadow="2"
   inkscape:window-width="640"
   inkscape:window-height="480"
   id="namedview104"
   showgrid="false"
   inkscape:zoom="1.8365233"
   inkscape:cx="37.795184"
   inkscape:cy="19.032564"
   inkscape:window-x="0"
   inkscape:window-y="0"
   inkscape:window-maximized="0"
   inkscape:current-layer="svg102" />
	<style
   type="text/css"
   id="style2">
	<![CDATA[
		.st1 {fill:#003067;stroke:none;stroke-linecap:butt;stroke-width:2.10576}
		.st2 {fill:url(#grad0-7);stroke:none;stroke-linecap:butt;stroke-width:2.10576}
		.st3 {fill:#83b9f9;stroke:none;stroke-linecap:butt;stroke-width:2.10576}
		.st4 {fill:url(#grad0-13);stroke:none;stroke-linecap:butt;stroke-width:2.10576}
		.st5 {fill:#c3f1ff;stroke:none;stroke-linecap:butt;stroke-width:2.10576}
		.st6 {fill:url(#grad0-23);stroke:none;stroke-linecap:butt;stroke-width:2.10576}
		.st7 {fill:none;fill-rule:evenodd;font-size:12px;overflow:visible;stroke-linecap:square;stroke-miterlimit:3}
	]]>
	</style>

	<defs
   id="Patterns_And_Gradients">
		<linearGradient
   id="grad0-7"
   x1="0"
   y1="107.82993"
   x2="16.797107"
   y2="107.82993"
   gradientTransform="scale(1.2930798,0.77334746)"
   gradientUnits="userSpaceOnUse">
			<stop
   offset="0"
   stop-color="#0078d4"
   stop-opacity="1"
   id="stop4" />
			<stop
   offset="1"
   stop-color="#5ea0ef"
   stop-opacity="1"
   id="stop6" />
		</linearGradient>
		<linearGradient
   id="grad0-13"
   x1="0"
   y1="107.82993"
   x2="16.797107"
   y2="107.82993"
   gradientTransform="scale(1.2930798,0.77334746)"
   gradientUnits="userSpaceOnUse">
			<stop
   offset="0"
   stop-color="#0078d4"
   stop-opacity="1"
   id="stop9" />
			<stop
   offset="1"
   stop-color="#5ea0ef"
   stop-opacity="1"
   id="stop11" />
		</linearGradient>
		<linearGradient
   id="grad0-23"
   x1="0"
   y1="107.82993"
   x2="16.797107"
   y2="107.82993"
   gradientTransform="scale(1.2930798,0.77334746)"
   gradientUnits="userSpaceOnUse">
			<stop
   offset="0"
   stop-color="#0078d4"
   stop-opacity="1"
   id="stop14" />
			<stop
   offset="1"
   stop-color="#5ea0ef"
   stop-opacity="1"
   id="stop16" />
		</linearGradient>
	</defs>
	<g
   id="g100"
   transform="translate(-5.6693772,-5.669338)">
		<title
   id="title20">Page-1</title>
		<g
   id="group7837-1"
   transform="translate(5.66929,-34.0157)">
			<title
   id="title22">Azure Managed Instance for Apache Cassandra</title>
			<g
   id="shape7838-2"
   transform="translate(16.5018,-35.0641)">
				<title
   id="title24">path2</title>
				<path
   d="m 0,86.86 1.49,-2.8 17.52,9.52 -1.49,2.8 z"
   class="st1"
   id="path26"
   inkscape:connector-curvature="0"
   style="fill:#003067;stroke:none;stroke-width:2.1057601;stroke-linecap:butt" />
			</g>
			<g
   id="shape7839-4"
   transform="translate(0,-39.6431)">
				<title
   id="title29">path4-9</title>
				<path
   d="M 21.72,92.16 V 83.39 H 0 v 8.77 c 0,2.32 4.86,4.22 10.86,4.22 6,0 10.86,-1.89 10.86,-4.22 z"
   class="st2"
   id="path31"
   inkscape:connector-curvature="0"
   style="fill:url(#grad0-7);stroke:none;stroke-width:2.1057601;stroke-linecap:butt" />
			</g>
			<g
   id="shape7840-8"
   transform="translate(0.00321771,-48.2752)">
				<title
   id="title34">ellipse6</title>
				<ellipse
   cx="10.8618"
   cy="92.169098"
   rx="10.8618"
   ry="4.2088599"
   class="st3"
   id="ellipse36"
   style="fill:#83b9f9;stroke:none;stroke-width:2.1057601;stroke-linecap:butt" />
			</g>
			<g
   id="shape7841-10"
   transform="translate(29.0688,-25.3019)">
				<title
   id="title39">path8</title>
				<path
   d="M 21.72,92.16 V 83.39 H 0 v 8.77 c 0,2.32 4.86,4.22 10.86,4.22 6,0 10.86,-1.89 10.86,-4.22 z"
   class="st4"
   id="path41"
   inkscape:connector-curvature="0"
   style="fill:url(#grad0-13);stroke:none;stroke-width:2.1057601;stroke-linecap:butt" />
			</g>
			<g
   id="shape7842-14"
   transform="translate(29.0688,-33.9404)">
				<title
   id="title44">ellipse10</title>
				<ellipse
   cx="10.8618"
   cy="92.169098"
   rx="10.8618"
   ry="4.2088599"
   class="st3"
   id="ellipse46"
   style="fill:#83b9f9;stroke:none;stroke-width:2.1057601;stroke-linecap:butt" />
			</g>
			<g
   id="shape7843-16"
   transform="translate(9.29814,-18.1117)">
				<title
   id="title49">path12</title>
				<rect
   x="0"
   y="70.520798"
   width="3.1530001"
   height="25.857201"
   class="st1"
   id="rect51"
   style="fill:#003067;stroke:none;stroke-width:2.1057601;stroke-linecap:butt" />
			</g>
			<g
   id="shape7844-18"
   transform="translate(7.28086,-42.9102)">
				<title
   id="title54">circle14</title>
				<ellipse
   cx="3.72247"
   cy="92.620499"
   rx="3.72247"
   ry="3.7574401"
   class="st5"
   id="ellipse56"
   style="fill:#c3f1ff;stroke:none;stroke-width:2.1057601;stroke-linecap:butt" />
			</g>
			<g
   id="shape7845-20"
   transform="translate(0,-11.6361)">
				<title
   id="title59">path16</title>
				<path
   d="M 21.72,92.16 V 83.39 H 0 v 8.77 c 0,2.32 4.86,4.22 10.86,4.22 6,0 10.86,-1.89 10.86,-4.22 z"
   class="st6"
   id="path61"
   inkscape:connector-curvature="0"
   style="fill:url(#grad0-23);stroke:none;stroke-width:2.1057601;stroke-linecap:butt" />
			</g>
			<g
   id="shape7846-24"
   transform="translate(0.00321771,-20.2779)">
				<title
   id="title64">ellipse18</title>
				<ellipse
   cx="10.8618"
   cy="92.169098"
   rx="10.8618"
   ry="4.2088599"
   class="st3"
   id="ellipse66"
   style="fill:#83b9f9;stroke:none;stroke-width:2.1057601;stroke-linecap:butt" />
			</g>
			<g
   id="shape7847-26"
   transform="translate(11.7755,-17.7577)">
				<title
   id="title69">path20</title>
				<path
   d="M 0,93.52 28.14,79.59 29.53,82.45 1.39,96.38 Z"
   class="st1"
   id="path71"
   inkscape:connector-curvature="0"
   style="fill:#003067;stroke:none;stroke-width:2.1057601;stroke-linecap:butt" />
			</g>
			<g
   id="shape7848-28"
   transform="translate(7.12321,-14.9746)">
				<title
   id="title74">circle22</title>
				<ellipse
   cx="3.72247"
   cy="92.620499"
   rx="3.72247"
   ry="3.7574401"
   class="st5"
   id="ellipse76"
   style="fill:#c3f1ff;stroke:none;stroke-width:2.1057601;stroke-linecap:butt" />
			</g>
			<g
   id="shape7849-30"
   transform="translate(36.2145,-29.2347)">
				<title
   id="title79">circle24</title>
				<ellipse
   cx="3.72247"
   cy="92.620499"
   rx="3.72247"
   ry="3.7574401"
   class="st5"
   id="ellipse81"
   style="fill:#c3f1ff;stroke:none;stroke-width:2.1057601;stroke-linecap:butt" />
			</g>
			<g
   id="shape7850-32"
   transform="translate(29.5932)">
				<title
   id="title84">path26</title>
				<path
   d="M 24.57,89.21 A 0.820424,0.828132 -180 0 0 24.248265,88.609199 54.6949,55.2088 -180 0 0 19.42,84.34 11.4634,11.5711 -180 0 0 10.93,82.05 17.7437,17.9104 -180 0 0 0.19,88.76 0.720686,0.727457 -180 0 0 0.003394,89.21466 0.836511,0.844369 -180 0 0 0.325129,89.818709 55.7213,56.2447 -180 0 0 5.17,94.09 a 11.4795,11.5873 -180 0 0 8.48,2.29 17.7501,17.9169 -180 0 0 10.75,-6.71 0.736773,0.743695 -180 0 0 0.189824,-0.457909 z"
   class="st1"
   id="path86"
   inkscape:connector-curvature="0"
   style="fill:#003067;stroke:none;stroke-width:2.1057601;stroke-linecap:butt" />
			</g>
			<g
   id="shape7851-34"
   transform="translate(36.0504,-1.16913)">
				<title
   id="title89">circle28</title>
				<ellipse
   cx="5.93923"
   cy="90.382896"
   rx="5.93923"
   ry="5.9950199"
   class="st5"
   id="ellipse91"
   style="fill:#c3f1ff;stroke:none;stroke-width:2.1057601;stroke-linecap:butt" />
			</g>
			<g
   id="shape7852-36"
   transform="translate(27.2445,-4.74039)">
				<title
   id="title94">path30</title>
				<path
   d="m 14.77,90.63 a 2.81518,2.84163 -180 0 0 -0.46,0.1 1.72772,1.74395 0 0 1 0.32,0.94 1.7985,1.81539 0 0 1 -1.8,1.82 1.76311,1.77967 0 0 1 -1.18,-0.47 3.16909,3.19886 -180 0 0 -0.2,0.97 3.33961,3.37098 -180 1 0 3.34,-3.37 z m 13.32,-3.27 a 21.1766,21.3755 -180 0 0 -6.21,-3.99 l 1.41,-2.52 a 1.47355,1.48739 -180 0 0 0.14,-1.11 1.41885,1.43218 -180 0 0 -2.59,-0.34 l -1.72,3.09 a 18.5384,18.7125 -180 0 0 -2.94,-0.46 v -3.17 a 1.42207,1.43543 -180 0 0 -2.84,0 v 3.16 a 18.9148,19.0925 -180 0 0 -3.01,0.47 L 8.61,79.4 A 1.42207,1.43543 -180 0 0 6.68,78.89 1.44781,1.46141 -180 0 0 6.16,80.83 l 1.41,2.52 a 21.1766,21.3755 -180 0 0 -6.21,4 C 0,88.59 2,90.6 3.37,89.38 a 16.6755,16.8322 0 0 1 22.73,0 c 1.34,1.25 3.35,-0.77 1.99,-2.02 z"
   class="st1"
   id="path96"
   inkscape:connector-curvature="0"
   style="fill:#003067;stroke:none;stroke-width:2.1057601;stroke-linecap:butt" />
			</g>
		</g>
	</g>
</svg>

<?xml version="1.0" encoding="UTF-8" standalone="no"?>
<!DOCTYPE svg PUBLIC "-//W3C//DTD SVG 1.1//EN" "http://www.w3.org/Graphics/SVG/1.1/DTD/svg11.dtd">
<!-- Generated by Microsoft Visio, SVG Export Azure Managed Instance for Apache Cassandra.svg Page-1 -->
<svg xmlns="http://www.w3.org/2000/svg" xmlns:xlink="http://www.w3.org/1999/xlink" xmlns:ev="http://www.w3.org/2001/xml-events"
		width="0.944882in" height="1.33858in" viewBox="0 0 68.0315 96.378" xml:space="preserve" color-interpolation-filters="sRGB"
		class="st7">
	<style type="text/css">
	<![CDATA[
		.st1 {fill:#003067;stroke:none;stroke-linecap:butt;stroke-width:2.10576}
		.st2 {fill:url(#grad0-7);stroke:none;stroke-linecap:butt;stroke-width:2.10576}
		.st3 {fill:#83b9f9;stroke:none;stroke-linecap:butt;stroke-width:2.10576}
		.st4 {fill:url(#grad0-13);stroke:none;stroke-linecap:butt;stroke-width:2.10576}
		.st5 {fill:#c3f1ff;stroke:none;stroke-linecap:butt;stroke-width:2.10576}
		.st6 {fill:url(#grad0-23);stroke:none;stroke-linecap:butt;stroke-width:2.10576}
		.st7 {fill:none;fill-rule:evenodd;font-size:12px;overflow:visible;stroke-linecap:square;stroke-miterlimit:3}
	]]>
	</style>

	<defs id="Patterns_And_Gradients">
		<linearGradient id="grad0-7" x1="0" y1="0" x2="1" y2="0" gradientTransform="rotate(-90 0.5 0.5)">
			<stop offset="0" stop-color="#0078d4" stop-opacity="1"/>
			<stop offset="1" stop-color="#5ea0ef" stop-opacity="1"/>
		</linearGradient>
		<linearGradient id="grad0-13" x1="0" y1="0" x2="1" y2="0" gradientTransform="rotate(-90.974245541434 0.5 0.5)">
			<stop offset="0" stop-color="#0078d4" stop-opacity="1"/>
			<stop offset="1" stop-color="#5ea0ef" stop-opacity="1"/>
		</linearGradient>
		<linearGradient id="grad0-23" x1="0" y1="0" x2="1" y2="0" gradientTransform="rotate(-89.845900542181 0.5 0.5)">
			<stop offset="0" stop-color="#0078d4" stop-opacity="1"/>
			<stop offset="1" stop-color="#5ea0ef" stop-opacity="1"/>
		</linearGradient>
	</defs>
	<g>
		<title>Page-1</title>
		<g id="group7642-1" transform="translate(5.66929,-34.0157)">
			<title>Azure Managed Instance for Apache Cassandra</title>
			<g id="shape7643-2" transform="translate(16.5018,-35.0641)">
				<title>path2</title>
				<path d="M0 86.86 L1.49 84.06 L19.01 93.58 L17.52 96.38 L0 86.86 Z" class="st1"/>
			</g>
			<g id="shape7644-4" transform="translate(0,-39.6431)">
				<title>path4-9</title>
				<path d="M21.72 92.16 L21.72 83.39 L0 83.39 L0 92.16 C0 94.48 4.86 96.38 10.86 96.38 C16.86 96.38 21.72 94.49 21.72
							 92.16 L21.72 92.16 Z" class="st2"/>
			</g>
			<g id="shape7645-8" transform="translate(0.00321771,-48.2752)">
				<title>ellipse6</title>
				<ellipse cx="10.8618" cy="92.1691" rx="10.8618" ry="4.20886" class="st3"/>
			</g>
			<g id="shape7646-10" transform="translate(29.0688,-25.3019)">
				<title>path8</title>
				<path d="M21.72 92.16 L21.72 83.39 L0 83.39 L0 92.16 C0 94.48 4.86 96.38 10.86 96.38 C16.86 96.38 21.72 94.49 21.72
							 92.16 L21.72 92.16 Z" class="st4"/>
			</g>
			<g id="shape7647-14" transform="translate(29.0688,-33.9404)">
				<title>ellipse10</title>
				<ellipse cx="10.8618" cy="92.1691" rx="10.8618" ry="4.20886" class="st3"/>
			</g>
			<g id="shape7648-16" transform="translate(9.29814,-18.1117)">
				<title>path12</title>
				<rect x="0" y="70.5208" width="3.153" height="25.8572" class="st1"/>
			</g>
			<g id="shape7649-18" transform="translate(7.28086,-42.9102)">
				<title>circle14</title>
				<ellipse cx="3.72247" cy="92.6205" rx="3.72247" ry="3.75744" class="st5"/>
			</g>
			<g id="shape7650-20" transform="translate(0,-11.6361)">
				<title>path16</title>
				<path d="M21.72 92.16 L21.72 83.39 L0 83.39 L0 92.16 C0 94.48 4.86 96.38 10.86 96.38 C16.86 96.38 21.72 94.49 21.72
							 92.16 L21.72 92.16 Z" class="st6"/>
			</g>
			<g id="shape7651-24" transform="translate(0.00321771,-20.2779)">
				<title>ellipse18</title>
				<ellipse cx="10.8618" cy="92.1691" rx="10.8618" ry="4.20886" class="st3"/>
			</g>
			<g id="shape7652-26" transform="translate(11.7755,-17.7577)">
				<title>path20</title>
				<path d="M0 93.52 L28.14 79.59 L29.53 82.45 L1.39 96.38 L0 93.52 Z" class="st1"/>
			</g>
			<g id="shape7653-28" transform="translate(7.12321,-14.9746)">
				<title>circle22</title>
				<ellipse cx="3.72247" cy="92.6205" rx="3.72247" ry="3.75744" class="st5"/>
			</g>
			<g id="shape7654-30" transform="translate(36.2145,-29.2347)">
				<title>circle24</title>
				<ellipse cx="3.72247" cy="92.6205" rx="3.72247" ry="3.75744" class="st5"/>
			</g>
			<g id="shape7655-32" transform="translate(29.5932,2.98428E-13)">
				<title>path26</title>
				<path d="M24.57 89.21 a0.820424 0.828132 -180 0 0 -0.321735 -0.600801 A54.6949 55.2088 -180 0 0 19.42 84.34 A11.4634
							 11.5711 -180 0 0 10.93 82.05 A17.7437 17.9104 -180 0 0 0.19 88.76 a0.720686 0.727457 -180 0 0 -0.186606
							 0.45466 a0.836511 0.844369 -180 0 0 0.321735 0.604049 A55.7213 56.2447 -180 0 0 5.17 94.09 A11.4795
							 11.5873 -180 0 0 13.65 96.38 A17.7501 17.9169 -180 0 0 24.4 89.67 a0.736773 0.743695 -180 0 0 0.189824
							 -0.457909 L24.57 89.21 Z" class="st1"/>
			</g>
			<g id="shape7656-34" transform="translate(36.0504,-1.16913)">
				<title>circle28</title>
				<ellipse cx="5.93923" cy="90.3829" rx="5.93923" ry="5.99502" class="st5"/>
			</g>
			<g id="shape7657-36" transform="translate(27.2445,-4.74039)">
				<title>path30</title>
				<path d="M14.77 90.63 A2.81518 2.84163 -180 0 0 14.31 90.73 A1.72772 1.74395 0 0 1 14.63 91.67 A1.7985 1.81539 0
							 0 1 12.83 93.49 A1.76311 1.77967 0 0 1 11.65 93.02 A3.16909 3.19886 -180 0 0 11.45 93.99 A3.33961 3.37098
							 -180 1 0 14.79 90.62 L14.77 90.63 ZM28.09 87.36 A21.1766 21.3755 -180 0 0 21.88 83.37 L23.29 80.85 A1.47355
							 1.48739 -180 0 0 23.43 79.74 A1.41885 1.43218 -180 0 0 20.84 79.4 L19.12 82.49 A18.5384 18.7125 -180
							 0 0 16.18 82.03 L16.18 78.86 A1.42207 1.43543 -180 0 0 13.34 78.86 L13.34 82.02 A18.9148 19.0925 -180
							 0 0 10.33 82.49 L8.61 79.4 A1.42207 1.43543 -180 0 0 6.68 78.89 A1.44781 1.46141 -180 0 0 6.16 80.83
							 L7.57 83.35 A21.1766 21.3755 -180 0 0 1.36 87.35 C0 88.59 2 90.6 3.37 89.38 A16.6755 16.8322 0 0 1 26.1
							 89.38 C27.44 90.63 29.45 88.61 28.09 87.36 Z" class="st1"/>
			</g>
		</g>
	</g>
</svg>
